X:760
T:Fancy Tune
A:Wyresdale, Lancashire
B:E and J Winder, 1835-41
L:1/16
M:2/4
O:England
Z:Richard Robinson 
%%TUNEURL: http://www.leeds.ac.uk/music/Info/RRTuneBk/gettune/00001070.html
%%ID:00001070
K:G
!segno! D2 | \
G2 GB AcBd | dcBc A2c2 | BGcA dBec | B4 {cB}A2D2 | \
G2GB AcBd | dcBc A2c2 | Bdec B2A2 | A4 G2 ||
Bd | \
c2c2 A3c | cBAB G3B  | ABcd edcB  | G4 F2Bd | \
cddd A3c | cBAB G2g2 | fage dge^c | dedc BcAB !segno! !D.C.! ||
%%newpage
%page 58
